Simply-Red-Circles/scalable/emotes/face-devilish.svg

<svg xmlns="http://www.w3.org/2000/svg" width="48" height="48" viewBox="0 0 12.7 12.7"><path style="marker:none" d="M6.34.07A6.29 6.29 0 0 0 2.7 1.24 2.4 2.4 0 0 1 2.24.23C2.21.05 1.9.03 1.83.2a3.6 3.6 0 0 0-.12 1.9A6.29 6.29 0 0 0 .05 6.37a6.29 6.29 0 0 0 6.3 6.28 6.29 6.29 0 0 0 6.28-6.29 6.29 6.29 0 0 0-1.7-4.29c.11-.67 0-1.4-.2-1.87-.08-.18-.4-.14-.42.03a2.4 2.4 0 0 1-.37.98A6.29 6.29 0 0 0 6.34.07zM6.32 1l.01.01a5.4 5.4 0 0 1 2.97.9l-.15.1c-.78.47.46 2.01 1.19 1.31.08-.08.15-.17.22-.27a5.4 5.4 0 0 1 1.17 3.36 5.4 5.4 0 0 1-5.4 5.41 5.4 5.4 0 0 1-5.41-5.4A5.4 5.4 0 0 1 2.1 3.03l.26.3c.76.65 1.93-.95 1.13-1.38l-.12-.07A5.4 5.4 0 0 1 6.32 1zm2.02 2.54a.66 1.55 0 0 0-.65 1.55.66 1.55 0 0 0 .65 1.54A.66 1.55 0 0 0 9 5.1a.66 1.55 0 0 0-.66-1.55zm-3.98.03a.66 1.55 0 0 0-.66 1.55.66 1.55 0 0 0 .66 1.54A.66 1.55 0 0 0 5 5.12a.66 1.55 0 0 0-.65-1.55zm3.97.41a.2.3 0 0 1 .2.3.2.3 0 0 1-.2.3.2.3 0 0 1-.2-.3.2.3 0 0 1 .2-.3zm-3.99.03a.2.3 0 0 1 .2.3.2.3 0 0 1-.2.3.2.3 0 0 1-.2-.3.2.3 0 0 1 .2-.3zm5.2 3.37c-.02 0-.03 0-.05.02-2 1.94-4.09 2.2-6.29 0-.07-.08-.07.08-.07.19 0 .1 0 .1.07.19l.25.23c0 .19.06 1.59.38 1.72.18.08.42-.59.55-.98 1.3.82 2.61.8 3.92 0 .13.4.37 1.06.55.98.31-.13.37-1.49.38-1.7l.26-.25c.07-.08.05-.11.05-.22 0-.08.02-.17 0-.18zM5.56 10c-.06.13-.1.26 0 .39.59.25 1.1.19 1.6 0a.4.4 0 0 0 0-.4c-.5.2-1.02.27-1.6 0z" overflow="visible" fill="#a02c2c"/></svg>

<?xml version="1.0" encoding="UTF-8" standalone="no"?>
<svg
   xmlns:dc="http://purl.org/dc/elements/1.1/"
   xmlns:cc="http://creativecommons.org/ns#"
   xmlns:rdf="http://www.w3.org/1999/02/22-rdf-syntax-ns#"
   xmlns:svg="http://www.w3.org/2000/svg"
   xmlns="http://www.w3.org/2000/svg"
   xmlns:sodipodi="http://sodipodi.sourceforge.net/DTD/sodipodi-0.dtd"
   xmlns:inkscape="http://www.inkscape.org/namespaces/inkscape"
   width="48"
   height="48"
   viewBox="0 0 12.7 12.7"
   version="1.1"
   id="svg4"
   sodipodi:docname="face-devilish.svg"
   inkscape:version="0.92.4 (5da689c313, 2019-01-14)">
  <metadata
     id="metadata10">
    <rdf:RDF>
      <cc:Work
         rdf:about="">
        <dc:format>image/svg+xml</dc:format>
        <dc:type
           rdf:resource="http://purl.org/dc/dcmitype/StillImage" />
        <dc:title></dc:title>
      </cc:Work>
    </rdf:RDF>
  </metadata>
  <defs
     id="defs8" />
  <sodipodi:namedview
     pagecolor="#ffffff"
     bordercolor="#666666"
     borderopacity="1"
     objecttolerance="10"
     gridtolerance="10"
     guidetolerance="10"
     inkscape:pageopacity="0"
     inkscape:pageshadow="2"
     inkscape:window-width="1087"
     inkscape:window-height="480"
     id="namedview6"
     showgrid="false"
     inkscape:zoom="4.9166667"
     inkscape:cx="2.1355932"
     inkscape:cy="24"
     inkscape:window-x="0"
     inkscape:window-y="25"
     inkscape:window-maximized="0"
     inkscape:current-layer="svg4" />
  <path
     style="overflow:visible;fill:#a02c2c;marker:none"
     d="M 6.34,0.07 A 6.29,6.29 0 0 0 2.7,1.24 2.4,2.4 0 0 1 2.24,0.23 C 2.21,0.05 1.9,0.03 1.83,0.2 A 3.6,3.6 0 0 0 1.71,2.1 6.29,6.29 0 0 0 0.05,6.37 6.29,6.29 0 0 0 6.35,12.65 6.29,6.29 0 0 0 12.63,6.36 6.29,6.29 0 0 0 10.93,2.07 C 11.04,1.4 10.93,0.67 10.73,0.2 10.65,0.02 10.33,0.06 10.31,0.23 10.27,0.57 10.13,0.91 9.94,1.21 A 6.29,6.29 0 0 0 6.34,0.07 Z M 6.32,1 6.33,1.01 A 5.4,5.4 0 0 1 9.3,1.91 L 9.15,2.01 C 8.37,2.48 9.61,4.02 10.34,3.32 10.42,3.24 10.49,3.15 10.56,3.05 A 5.4,5.4 0 0 1 11.73,6.41 5.4,5.4 0 0 1 6.33,11.82 5.4,5.4 0 0 1 0.92,6.42 5.4,5.4 0 0 1 2.1,3.03 l 0.26,0.3 C 3.12,3.98 4.29,2.38 3.49,1.95 L 3.37,1.88 A 5.4,5.4 0 0 1 6.32,1 Z M 8.34,3.54 A 0.66,1.55 0 0 0 7.69,5.09 0.66,1.55 0 0 0 8.34,6.63 0.66,1.55 0 0 0 9,5.1 0.66,1.55 0 0 0 8.34,3.55 Z M 4.36,3.57 A 0.66,1.55 0 0 0 3.7,5.12 0.66,1.55 0 0 0 4.36,6.66 0.66,1.55 0 0 0 5,5.12 0.66,1.55 0 0 0 4.35,3.57 Z m 3.97,0.41 a 0.2,0.3 0 0 1 0.2,0.3 0.2,0.3 0 0 1 -0.2,0.3 0.2,0.3 0 0 1 -0.2,-0.3 0.2,0.3 0 0 1 0.2,-0.3 z M 4.34,4.01 a 0.2,0.3 0 0 1 0.2,0.3 0.2,0.3 0 0 1 -0.2,0.3 0.2,0.3 0 0 1 -0.2,-0.3 0.2,0.3 0 0 1 0.2,-0.3 z m 5.2,3.37 c -0.02,0 -0.03,0 -0.05,0.02 -2,1.94 -4.09,2.2 -6.29,0 -0.07,-0.08 -0.07,0.08 -0.07,0.19 0,0.1 0,0.1 0.07,0.19 l 0.25,0.23 c 0,0.19 0.06,1.59 0.38,1.72 0.18,0.08 0.42,-0.59 0.55,-0.98 1.3,0.82 2.61,0.8 3.92,0 0.13,0.4 0.37,1.06 0.55,0.98 C 9.16,9.6 9.22,8.24 9.23,8.03 L 9.49,7.78 C 9.56,7.7 9.54,7.67 9.54,7.56 c 0,-0.08 0.02,-0.17 0,-0.18 z M 5.56,10 c -0.06,0.13 -0.1,0.26 0,0.39 0.59,0.25 1.1,0.19 1.6,0 a 0.4,0.4 0 0 0 0,-0.4 c -0.5,0.2 -1.02,0.27 -1.6,0 z"
     overflow="visible"
     id="path2"
     inkscape:connector-curvature="0" />
</svg>
